svg/300/rounded/other_houses-fill.svg

<svg xmlns="http://www.w3.org/2000/svg" width="48" height="48" viewBox="0 -960 960 960"><path d="M180.001-197.694v-331.768l-65.385 50.616q-7.307 6.076-16.422 4.461-9.115-1.615-15.192-9.308-6.077-7.307-4.654-16.23t9.115-15.384l357.691-272.845q8.13-5.615 16.736-8.923t18.166-3.308q9.559 0 17.993 3.308t16.412 8.923l358.691 273.845q7.692 6.077 8.808 15 1.115 8.922-4.962 16.686-6.077 7.236-14.692 8.544-8.615 1.307-16.307-4.769l-66-50.616v331.768q0 23.75-16.972 40.721-16.971 16.972-40.721 16.972H237.694q-23.75 0-40.721-16.972-16.972-16.971-16.972-40.721ZM320-364.616q14.692 0 25.038-10.346T355.384-400q0-14.692-10.346-25.038T320-435.384q-14.692 0-25.038 10.346T284.616-400q0 14.692 10.346 25.038T320-364.616Zm160 0q14.692 0 25.038-10.346T515.384-400q0-14.692-10.346-25.038T480-435.384q-14.692 0-25.038 10.346T444.616-400q0 14.692 10.346 25.038T480-364.616Zm160 0q14.692 0 25.038-10.346T675.384-400q0-14.692-10.346-25.038T640-435.384q-14.692 0-25.038 10.346T604.616-400q0 14.692 10.346 25.038T640-364.616Z"/></svg>

<svg xmlns="http://www.w3.org/2000/svg" width="48" height="48" viewBox="0 -960 960 960"><path d="M180-197.69v-331.77l-65.38 50.61q-7.31 6.08-16.43 4.46-9.11-1.61-15.19-9.3-6.07-7.31-4.65-16.23 1.42-8.93 9.11-15.39l357.69-272.84q8.13-5.62 16.74-8.93 8.61-3.3 18.17-3.3 9.56 0 17.99 3.3 8.43 3.31 16.41 8.93l358.69 273.84q7.69 6.08 8.81 15 1.11 8.93-4.96 16.69-6.08 7.23-14.69 8.54-8.62 1.31-16.31-4.77l-66-50.61v331.77q0 23.75-16.97 40.72T722.31-140H237.69q-23.75 0-40.72-16.97T180-197.69Zm140-166.93q14.69 0 25.04-10.34 10.34-10.35 10.34-25.04t-10.34-25.04q-10.35-10.34-25.04-10.34t-25.04 10.34q-10.34 10.35-10.34 25.04t10.34 25.04q10.35 10.34 25.04 10.34Zm160 0q14.69 0 25.04-10.34 10.34-10.35 10.34-25.04t-10.34-25.04q-10.35-10.34-25.04-10.34t-25.04 10.34q-10.34 10.35-10.34 25.04t10.34 25.04q10.35 10.34 25.04 10.34Zm160 0q14.69 0 25.04-10.34 10.34-10.35 10.34-25.04t-10.34-25.04q-10.35-10.34-25.04-10.34t-25.04 10.34q-10.34 10.35-10.34 25.04t10.34 25.04q10.35 10.34 25.04 10.34Z"/></svg>
